X:033 
T:Collegians of Glasgow (reel), The 
F:file ID: cre.5/033coll_g
B:CRE5.187 (ColÃÂÃÂÃÂÃÂ¡isteÃÂÃÂÃÂÃÂ¡naigh GhlascÃÂÃÂÃÂÃÂº)
M:4/4
Q:180
R:reel
K:Em
g|dGBG dGAB|dGBG Eeec|dGBG dGBd|cABG Eee:|
g|efge dGBd|efge fgab|efge dGBd|cABG Eeed|
efge dGBd|efge fga2|bgae dgBd|cABG E4|]

%%%

